X:16
T:Three Around Three
M:4/4
L:1/8
Z:Steve Mansfield 2002
K:G
d2BA G2G2 | A2BA G2D2 | EDEF G2AB | c2B2 B2A2 | d2BA G2G2 | 
A2BA G2D2 | EDEF G2Ac | B2G2G4 :: d2ef gfed | e2e2 efge | 
d2B2B2AG | FGAB A4 | d2ef gfed| e2e2e2d2 | ef g2fg a2 | g4g4 :|

